images/6167.svg

<?xml version="1.0" encoding="UTF-8"?>
<svg xmlns="http://www.w3.org/2000/svg" xmlns:xlink="http://www.w3.org/1999/xlink" width="300pt" height="300pt" viewBox="0 0 300 300" version="1.1">
<defs>
<g>
<symbol overflow="visible" id="glyph0-0">
<path style="stroke:none;" d="M 0.59375 2.125 L 0.59375 -8.46875 L 6.59375 -8.46875 L 6.59375 2.125 Z M 1.265625 1.453125 L 5.9375 1.453125 L 5.9375 -7.78125 L 1.265625 -7.78125 Z M 1.265625 1.453125 "/>
</symbol>
<symbol overflow="visible" id="glyph0-1">
<path style="stroke:none;" d="M 4.734375 -7.953125 C 3.867188 -7.953125 3.179688 -7.628906 2.671875 -6.984375 C 2.171875 -6.347656 1.921875 -5.472656 1.921875 -4.359375 C 1.921875 -3.265625 2.171875 -2.394531 2.671875 -1.75 C 3.179688 -1.113281 3.867188 -0.796875 4.734375 -0.796875 C 5.585938 -0.796875 6.265625 -1.113281 6.765625 -1.75 C 7.273438 -2.394531 7.53125 -3.265625 7.53125 -4.359375 C 7.53125 -5.472656 7.273438 -6.347656 6.765625 -6.984375 C 6.265625 -7.628906 5.585938 -7.953125 4.734375 -7.953125 Z M 4.734375 -8.90625 C 5.953125 -8.90625 6.925781 -8.492188 7.65625 -7.671875 C 8.394531 -6.847656 8.765625 -5.742188 8.765625 -4.359375 C 8.765625 -2.984375 8.394531 -1.882812 7.65625 -1.0625 C 6.925781 -0.238281 5.953125 0.171875 4.734375 0.171875 C 3.503906 0.171875 2.519531 -0.238281 1.78125 -1.0625 C 1.039062 -1.882812 0.671875 -2.984375 0.671875 -4.359375 C 0.671875 -5.742188 1.039062 -6.847656 1.78125 -7.671875 C 2.519531 -8.492188 3.503906 -8.90625 4.734375 -8.90625 Z M 4.734375 -8.90625 "/>
</symbol>
<symbol overflow="visible" id="glyph0-2">
<path style="stroke:none;" d="M 1.171875 -8.75 L 2.765625 -8.75 L 6.65625 -1.4375 L 6.65625 -8.75 L 7.796875 -8.75 L 7.796875 0 L 6.203125 0 L 2.328125 -7.3125 L 2.328125 0 L 1.171875 0 Z M 1.171875 -8.75 "/>
</symbol>
<symbol overflow="visible" id="glyph0-3">
<path style="stroke:none;" d="M 1.171875 -8.75 L 2.359375 -8.75 L 2.359375 -5.15625 L 6.65625 -5.15625 L 6.65625 -8.75 L 7.84375 -8.75 L 7.84375 0 L 6.65625 0 L 6.65625 -4.171875 L 2.359375 -4.171875 L 2.359375 0 L 1.171875 0 Z M 1.171875 -8.75 "/>
</symbol>
</g>
</defs>
<g id="surface47249">
<rect x="0" y="0" width="300" height="300" style="fill:rgb(100%,100%,100%);fill-opacity:1;stroke:none;"/>
<path style="fill:none;stroke-width:1.2;stroke-linecap:butt;stroke-linejoin:miter;stroke:rgb(0%,0%,0%);stroke-opacity:1;stroke-miterlimit:10;" d="M 35.25 79.460938 L 63.609375 84.3125 "/>
<path style="fill:none;stroke-width:1.2;stroke-linecap:butt;stroke-linejoin:miter;stroke:rgb(0%,0%,0%);stroke-opacity:1;stroke-miterlimit:10;" d="M 66.214844 86.472656 L 75.40625 75.40625 "/>
<path style="fill:none;stroke-width:1.2;stroke-linecap:butt;stroke-linejoin:miter;stroke:rgb(100%,0%,0%);stroke-opacity:1;stroke-miterlimit:10;" d="M 75.40625 75.40625 L 84.59375 64.335938 "/>
<path style="fill:none;stroke-width:1.2;stroke-linecap:butt;stroke-linejoin:miter;stroke:rgb(0%,0%,0%);stroke-opacity:1;stroke-miterlimit:10;" d="M 61.007812 82.148438 L 70.195312 71.082031 "/>
<path style="fill:none;stroke-width:1.2;stroke-linecap:butt;stroke-linejoin:miter;stroke:rgb(100%,0%,0%);stroke-opacity:1;stroke-miterlimit:10;" d="M 70.195312 71.082031 L 79.386719 60.011719 "/>
<path style="fill:none;stroke-width:1.2;stroke-linecap:butt;stroke-linejoin:miter;stroke:rgb(0%,0%,0%);stroke-opacity:1;stroke-miterlimit:10;" d="M 63.609375 84.3125 L 68.601562 97.804688 "/>
<path style="fill:none;stroke-width:1.2;stroke-linecap:butt;stroke-linejoin:miter;stroke:rgb(0%,0%,100%);stroke-opacity:1;stroke-miterlimit:10;" d="M 68.601562 97.804688 L 73.589844 111.296875 "/>
<path style=" stroke:none;fill-rule:nonzero;fill:rgb(100%,100%,100%);fill-opacity:1;" d="M 76.992188 55.175781 L 86.992188 55.175781 L 86.992188 69.175781 L 76.992188 69.175781 Z M 76.992188 55.175781 "/>
<g style="fill:rgb(100%,0%,0%);fill-opacity:1;">
  <use xlink:href="#glyph0-1" x="76.992188" y="66.314453"/>
</g>
<path style=" stroke:none;fill-rule:nonzero;fill:rgb(0%,0%,0%);fill-opacity:1;" d="M 101.953125 116.148438 L 74.445312 106.292969 L 72.734375 116.300781 Z M 101.953125 116.148438 "/>
<path style=" stroke:none;fill-rule:nonzero;fill:rgb(100%,100%,100%);fill-opacity:1;" d="M 64.589844 104.296875 L 82.589844 104.296875 L 82.589844 118.296875 L 64.589844 118.296875 Z M 64.589844 104.296875 "/>
<g style="fill:rgb(0%,0%,100%);fill-opacity:1;">
  <use xlink:href="#glyph0-2" x="64.589844" y="115.435547"/>
  <use xlink:href="#glyph0-3" x="73.566406" y="115.435547"/>
</g>
<path style="fill:none;stroke-width:1.2;stroke-linecap:butt;stroke-linejoin:miter;stroke:rgb(0%,0%,0%);stroke-opacity:1;stroke-miterlimit:10;" d="M 101.953125 116.148438 L 118.625 92.699219 "/>
<path style="fill:none;stroke-width:1.2;stroke-linecap:butt;stroke-linejoin:miter;stroke:rgb(0%,0%,0%);stroke-opacity:1;stroke-miterlimit:10;" d="M 109.886719 143.804688 L 101.953125 116.148438 "/>
<path style="fill:none;stroke-width:1.2;stroke-linecap:butt;stroke-linejoin:miter;stroke:rgb(0%,0%,0%);stroke-opacity:1;stroke-miterlimit:10;" d="M 118.625 92.699219 L 147.355469 91.117188 "/>
<path style="fill:none;stroke-width:1.2;stroke-linecap:butt;stroke-linejoin:miter;stroke:rgb(0%,0%,0%);stroke-opacity:1;stroke-miterlimit:10;" d="M 147.355469 91.117188 L 166.503906 112.589844 "/>
<path style="fill:none;stroke-width:1.2;stroke-linecap:butt;stroke-linejoin:miter;stroke:rgb(0%,0%,0%);stroke-opacity:1;stroke-miterlimit:10;" d="M 166.503906 112.589844 L 193.492188 102.609375 "/>
<path style="fill:none;stroke-width:1.2;stroke-linecap:butt;stroke-linejoin:miter;stroke:rgb(0%,0%,0%);stroke-opacity:1;stroke-miterlimit:10;" d="M 171.550781 117.941406 L 193.140625 109.957031 "/>
<path style="fill:none;stroke-width:1.2;stroke-linecap:butt;stroke-linejoin:miter;stroke:rgb(0%,0%,0%);stroke-opacity:1;stroke-miterlimit:10;" d="M 161.65625 140.953125 L 166.503906 112.589844 "/>
<path style="fill:none;stroke-width:1.2;stroke-linecap:butt;stroke-linejoin:miter;stroke:rgb(0%,0%,0%);stroke-opacity:1;stroke-miterlimit:10;" d="M 193.492188 102.609375 L 215.628906 120.992188 "/>
<path style="fill:none;stroke-width:1.2;stroke-linecap:butt;stroke-linejoin:miter;stroke:rgb(0%,0%,0%);stroke-opacity:1;stroke-miterlimit:10;" d="M 215.628906 120.992188 L 210.777344 149.351562 "/>
<path style="fill:none;stroke-width:1.2;stroke-linecap:butt;stroke-linejoin:miter;stroke:rgb(0%,0%,0%);stroke-opacity:1;stroke-miterlimit:10;" d="M 208.46875 122.6875 L 204.589844 145.375 "/>
<path style="fill:none;stroke-width:1.2;stroke-linecap:butt;stroke-linejoin:miter;stroke:rgb(0%,0%,0%);stroke-opacity:1;stroke-miterlimit:10;" d="M 215.628906 120.992188 L 229.121094 116 "/>
<path style="fill:none;stroke-width:1.2;stroke-linecap:butt;stroke-linejoin:miter;stroke:rgb(100%,0%,0%);stroke-opacity:1;stroke-miterlimit:10;" d="M 229.121094 116 L 242.613281 111.011719 "/>
<path style="fill:none;stroke-width:1.2;stroke-linecap:butt;stroke-linejoin:miter;stroke:rgb(0%,0%,0%);stroke-opacity:1;stroke-miterlimit:10;" d="M 210.777344 149.351562 L 183.792969 159.332031 "/>
<path style="fill:none;stroke-width:1.2;stroke-linecap:butt;stroke-linejoin:miter;stroke:rgb(0%,0%,0%);stroke-opacity:1;stroke-miterlimit:10;" d="M 210.777344 149.351562 L 221.847656 158.542969 "/>
<path style="fill:none;stroke-width:1.2;stroke-linecap:butt;stroke-linejoin:miter;stroke:rgb(100%,0%,0%);stroke-opacity:1;stroke-miterlimit:10;" d="M 221.847656 158.542969 L 232.914062 167.734375 "/>
<path style="fill:none;stroke-width:1.2;stroke-linecap:butt;stroke-linejoin:miter;stroke:rgb(0%,0%,0%);stroke-opacity:1;stroke-miterlimit:10;" d="M 183.792969 159.332031 L 161.65625 140.953125 "/>
<path style="fill:none;stroke-width:1.2;stroke-linecap:butt;stroke-linejoin:miter;stroke:rgb(0%,0%,0%);stroke-opacity:1;stroke-miterlimit:10;" d="M 185.902344 152.285156 L 168.195312 137.582031 "/>
<path style="fill:none;stroke-width:1.2;stroke-linecap:butt;stroke-linejoin:miter;stroke:rgb(0%,0%,0%);stroke-opacity:1;stroke-miterlimit:10;" d="M 183.792969 159.332031 L 181.367188 173.511719 "/>
<path style="fill:none;stroke-width:1.2;stroke-linecap:butt;stroke-linejoin:miter;stroke:rgb(100%,0%,0%);stroke-opacity:1;stroke-miterlimit:10;" d="M 181.367188 173.511719 L 178.941406 187.691406 "/>
<path style="fill:none;stroke-width:1.2;stroke-linecap:butt;stroke-linejoin:miter;stroke:rgb(0%,0%,0%);stroke-opacity:1;stroke-miterlimit:10;" d="M 161.65625 140.953125 L 136.457031 154.84375 "/>
<path style="fill:none;stroke-width:1.2;stroke-linecap:butt;stroke-linejoin:miter;stroke:rgb(0%,0%,0%);stroke-opacity:1;stroke-miterlimit:10;" d="M 136.457031 154.84375 L 144.394531 182.5 "/>
<path style="fill:none;stroke-width:1.2;stroke-linecap:butt;stroke-linejoin:miter;stroke:rgb(0%,0%,0%);stroke-opacity:1;stroke-miterlimit:10;" d="M 130.746094 159.476562 L 137.09375 181.601562 "/>
<path style="fill:none;stroke-width:1.2;stroke-linecap:butt;stroke-linejoin:miter;stroke:rgb(0%,0%,0%);stroke-opacity:1;stroke-miterlimit:10;" d="M 109.886719 143.804688 L 136.457031 154.84375 "/>
<path style="fill:none;stroke-width:1.2;stroke-linecap:butt;stroke-linejoin:miter;stroke:rgb(0%,0%,0%);stroke-opacity:1;stroke-miterlimit:10;" d="M 144.394531 182.5 L 127.71875 205.945312 "/>
<path style="fill:none;stroke-width:1.2;stroke-linecap:butt;stroke-linejoin:miter;stroke:rgb(0%,0%,0%);stroke-opacity:1;stroke-miterlimit:10;" d="M 127.71875 205.945312 L 98.988281 207.53125 "/>
<path style="fill:none;stroke-width:1.2;stroke-linecap:butt;stroke-linejoin:miter;stroke:rgb(0%,0%,0%);stroke-opacity:1;stroke-miterlimit:10;" d="M 124.472656 199.34375 L 101.492188 200.613281 "/>
<path style="fill:none;stroke-width:1.2;stroke-linecap:butt;stroke-linejoin:miter;stroke:rgb(0%,0%,0%);stroke-opacity:1;stroke-miterlimit:10;" d="M 98.988281 207.53125 L 79.839844 186.054688 "/>
<path style="fill:none;stroke-width:1.2;stroke-linecap:butt;stroke-linejoin:miter;stroke:rgb(0%,0%,0%);stroke-opacity:1;stroke-miterlimit:10;" d="M 98.988281 207.53125 L 93.46875 220.816406 "/>
<path style="fill:none;stroke-width:1.2;stroke-linecap:butt;stroke-linejoin:miter;stroke:rgb(100%,0%,0%);stroke-opacity:1;stroke-miterlimit:10;" d="M 93.46875 220.816406 L 87.949219 234.101562 "/>
<path style="fill:none;stroke-width:1.2;stroke-linecap:butt;stroke-linejoin:miter;stroke:rgb(0%,0%,0%);stroke-opacity:1;stroke-miterlimit:10;" d="M 78.90625 182.800781 L 65.078125 186.769531 "/>
<path style="fill:none;stroke-width:1.2;stroke-linecap:butt;stroke-linejoin:miter;stroke:rgb(100%,0%,0%);stroke-opacity:1;stroke-miterlimit:10;" d="M 65.078125 186.769531 L 51.25 190.738281 "/>
<path style="fill:none;stroke-width:1.2;stroke-linecap:butt;stroke-linejoin:miter;stroke:rgb(0%,0%,0%);stroke-opacity:1;stroke-miterlimit:10;" d="M 80.773438 189.308594 L 66.945312 193.277344 "/>
<path style="fill:none;stroke-width:1.2;stroke-linecap:butt;stroke-linejoin:miter;stroke:rgb(100%,0%,0%);stroke-opacity:1;stroke-miterlimit:10;" d="M 66.945312 193.277344 L 53.117188 197.246094 "/>
<path style="fill:none;stroke-width:1.2;stroke-linecap:butt;stroke-linejoin:miter;stroke:rgb(0%,0%,0%);stroke-opacity:1;stroke-miterlimit:10;" d="M 79.839844 186.054688 L 84.691406 157.695312 "/>
<path style=" stroke:none;fill-rule:nonzero;fill:rgb(100%,100%,100%);fill-opacity:1;" d="M 42.183594 186.992188 L 52.183594 186.992188 L 52.183594 200.992188 L 42.183594 200.992188 Z M 42.183594 186.992188 "/>
<g style="fill:rgb(100%,0%,0%);fill-opacity:1;">
  <use xlink:href="#glyph0-1" x="42.183594" y="198.130859"/>
</g>
<path style="fill:none;stroke-width:1.2;stroke-linecap:butt;stroke-linejoin:miter;stroke:rgb(0%,0%,0%);stroke-opacity:1;stroke-miterlimit:10;" d="M 84.691406 157.695312 L 109.886719 143.804688 "/>
<path style="fill:none;stroke-width:1.2;stroke-linecap:butt;stroke-linejoin:miter;stroke:rgb(0%,0%,0%);stroke-opacity:1;stroke-miterlimit:10;" d="M 90.480469 162.234375 L 110.636719 151.121094 "/>
<path style="fill:none;stroke-width:1.2;stroke-linecap:butt;stroke-linejoin:miter;stroke:rgb(100%,0%,0%);stroke-opacity:1;stroke-miterlimit:10;" d="M 87.949219 234.101562 L 73.6875 235.960938 "/>
<path style="fill:none;stroke-width:1.2;stroke-linecap:butt;stroke-linejoin:miter;stroke:rgb(0%,0%,0%);stroke-opacity:1;stroke-miterlimit:10;" d="M 73.6875 235.960938 L 59.421875 237.824219 "/>
<path style=" stroke:none;fill-rule:nonzero;fill:rgb(100%,100%,100%);fill-opacity:1;" d="M 82.949219 227.101562 L 92.949219 227.101562 L 92.949219 241.101562 L 82.949219 241.101562 Z M 82.949219 227.101562 "/>
<g style="fill:rgb(100%,0%,0%);fill-opacity:1;">
  <use xlink:href="#glyph0-1" x="82.949219" y="238.240234"/>
</g>
<path style="fill:none;stroke-width:1.2;stroke-linecap:butt;stroke-linejoin:miter;stroke:rgb(100%,0%,0%);stroke-opacity:1;stroke-miterlimit:10;" d="M 178.941406 187.691406 L 190.011719 196.882812 "/>
<path style="fill:none;stroke-width:1.2;stroke-linecap:butt;stroke-linejoin:miter;stroke:rgb(0%,0%,0%);stroke-opacity:1;stroke-miterlimit:10;" d="M 190.011719 196.882812 L 201.078125 206.074219 "/>
<path style=" stroke:none;fill-rule:nonzero;fill:rgb(100%,100%,100%);fill-opacity:1;" d="M 173.941406 180.691406 L 183.941406 180.691406 L 183.941406 194.691406 L 173.941406 194.691406 Z M 173.941406 180.691406 "/>
<g style="fill:rgb(100%,0%,0%);fill-opacity:1;">
  <use xlink:href="#glyph0-1" x="173.941406" y="191.830078"/>
</g>
<path style="fill:none;stroke-width:1.2;stroke-linecap:butt;stroke-linejoin:miter;stroke:rgb(100%,0%,0%);stroke-opacity:1;stroke-miterlimit:10;" d="M 232.914062 167.734375 L 230.488281 181.914062 "/>
<path style="fill:none;stroke-width:1.2;stroke-linecap:butt;stroke-linejoin:miter;stroke:rgb(0%,0%,0%);stroke-opacity:1;stroke-miterlimit:10;" d="M 230.488281 181.914062 L 228.0625 196.09375 "/>
<path style=" stroke:none;fill-rule:nonzero;fill:rgb(100%,100%,100%);fill-opacity:1;" d="M 227.914062 160.734375 L 237.914062 160.734375 L 237.914062 174.734375 L 227.914062 174.734375 Z M 227.914062 160.734375 "/>
<g style="fill:rgb(100%,0%,0%);fill-opacity:1;">
  <use xlink:href="#glyph0-1" x="227.914062" y="171.873047"/>
</g>
<path style="fill:none;stroke-width:1.2;stroke-linecap:butt;stroke-linejoin:miter;stroke:rgb(100%,0%,0%);stroke-opacity:1;stroke-miterlimit:10;" d="M 242.613281 111.011719 L 253.683594 120.199219 "/>
<path style="fill:none;stroke-width:1.2;stroke-linecap:butt;stroke-linejoin:miter;stroke:rgb(0%,0%,0%);stroke-opacity:1;stroke-miterlimit:10;" d="M 253.683594 120.199219 L 264.75 129.390625 "/>
<path style=" stroke:none;fill-rule:nonzero;fill:rgb(100%,100%,100%);fill-opacity:1;" d="M 237.613281 104.011719 L 247.613281 104.011719 L 247.613281 118.011719 L 237.613281 118.011719 Z M 237.613281 104.011719 "/>
<g style="fill:rgb(100%,0%,0%);fill-opacity:1;">
  <use xlink:href="#glyph0-1" x="237.613281" y="115.150391"/>
</g>
</g>
</svg>

<svg xmlns="http://www.w3.org/2000/svg" xmlns:xlink="http://www.w3.org/1999/xlink" width="300pt" height="300pt" viewBox="0 0 300 300"><defs><symbol overflow="visible"><path d="M.594 2.125V-8.47h6V2.126zm.672-.672h4.671V-7.78h-4.67zm0 0"/></symbol><symbol overflow="visible" id="a"><path d="M4.734-7.953c-.867 0-1.554.324-2.062.97-.5.635-.75 1.51-.75 2.624 0 1.094.25 1.965.75 2.61.508.637 1.195.953 2.062.953.852 0 1.532-.316 2.032-.953.507-.645.765-1.516.765-2.61 0-1.113-.257-1.988-.764-2.624-.5-.645-1.18-.97-2.032-.97zm0-.953c1.22 0 2.192.414 2.922 1.234.74.824 1.11 1.93 1.11 3.313 0 1.376-.37 2.477-1.11 3.298C6.926-.24 5.953.17 4.734.17c-1.23 0-2.214-.41-2.953-1.234C1.04-1.882.673-2.984.673-4.36c0-1.382.367-2.488 1.11-3.312.738-.82 1.722-1.234 2.952-1.234zm0 0"/></symbol><symbol overflow="visible" id="b"><path d="M1.172-8.75h1.594l3.89 7.313V-8.75h1.14V0H6.204L2.328-7.313V0H1.172zm0 0"/></symbol><symbol overflow="visible" id="c"><path d="M1.172-8.75H2.36v3.594h4.296V-8.75h1.188V0H6.656v-4.172H2.36V0H1.17zm0 0"/></symbol></defs><g><path fill="#fff" d="M0 0h300v300H0z"/><path d="M35.25 79.46l28.36 4.853M66.215 86.473l9.19-11.067" stroke-width="1.2" stroke="#000" stroke-miterlimit="10" fill="none"/><path d="M75.406 75.406l9.188-11.07" stroke-width="1.2" stroke="#f00" stroke-miterlimit="10" fill="none"/><path d="M61.008 82.148l9.187-11.066" stroke-width="1.2" stroke="#000" stroke-miterlimit="10" fill="none"/><path d="M70.195 71.082l9.192-11.07" stroke-width="1.2" stroke="#f00" stroke-miterlimit="10" fill="none"/><path d="M63.61 84.313L68.6 97.805" stroke-width="1.2" stroke="#000" stroke-miterlimit="10" fill="none"/><path d="M68.602 97.805l4.988 13.492" stroke-width="1.2" stroke="#00f" stroke-miterlimit="10" fill="none"/><path d="M76.992 55.176h10v14h-10zm0 0" fill="#fff"/><use xlink:href="#a" x="76.992" y="66.314" fill="#f00"/><path d="M101.953 116.148l-27.508-9.855-1.71 10.008zm0 0"/><path d="M64.59 104.297h18v14h-18zm0 0" fill="#fff"/><g fill="#00f"><use xlink:href="#b" x="64.59" y="115.436"/><use xlink:href="#c" x="73.566" y="115.436"/></g><path d="M101.953 116.148l16.672-23.45M109.887 143.805l-7.934-27.657M118.625 92.7l28.73-1.583M147.355 91.117l19.15 21.473M166.504 112.59l26.988-9.98M171.55 117.94l21.59-7.983M161.656 140.953l4.848-28.363M193.492 102.61l22.137 18.382M215.63 120.992l-4.853 28.36M208.47 122.688l-3.88 22.687M215.63 120.992L229.12 116" stroke-width="1.2" stroke="#000" stroke-miterlimit="10" fill="none"/><path d="M229.12 116l13.493-4.988" stroke-width="1.2" stroke="#f00" stroke-miterlimit="10" fill="none"/><path d="M210.777 149.352l-26.984 9.98M210.777 149.352l11.07 9.19" stroke-width="1.2" stroke="#000" stroke-miterlimit="10" fill="none"/><path d="M221.848 158.543l11.066 9.19" stroke-width="1.2" stroke="#f00" stroke-miterlimit="10" fill="none"/><path d="M183.793 159.332l-22.137-18.38M185.902 152.285l-17.707-14.703M183.793 159.332l-2.426 14.18" stroke-width="1.2" stroke="#000" stroke-miterlimit="10" fill="none"/><path d="M181.367 173.512l-2.426 14.18" stroke-width="1.2" stroke="#f00" stroke-miterlimit="10" fill="none"/><path d="M161.656 140.953l-25.2 13.89M136.457 154.844l7.938 27.656M130.746 159.477l6.348 22.125M109.887 143.805l26.57 11.04M144.395 182.5l-16.676 23.445M127.72 205.945l-28.732 1.586M124.473 199.344l-22.98 1.27M98.988 207.53L79.84 186.056M98.988 207.53l-5.52 13.286" stroke-width="1.2" stroke="#000" stroke-miterlimit="10" fill="none"/><path d="M93.47 220.816l-5.52 13.286" stroke-width="1.2" stroke="#f00" stroke-miterlimit="10" fill="none"/><path d="M78.906 182.8l-13.828 3.97" stroke-width="1.2" stroke="#000" stroke-miterlimit="10" fill="none"/><path d="M65.078 186.77l-13.828 3.968" stroke-width="1.2" stroke="#f00" stroke-miterlimit="10" fill="none"/><path d="M80.773 189.31l-13.828 3.967" stroke-width="1.2" stroke="#000" stroke-miterlimit="10" fill="none"/><path d="M66.945 193.277l-13.828 3.97" stroke-width="1.2" stroke="#f00" stroke-miterlimit="10" fill="none"/><path d="M79.84 186.055l4.85-28.36" stroke-width="1.2" stroke="#000" stroke-miterlimit="10" fill="none"/><path d="M42.184 186.992h10v14h-10zm0 0" fill="#fff"/><use xlink:href="#a" x="42.184" y="198.131" fill="#f00"/><path d="M84.69 157.695l25.197-13.89M90.48 162.234l20.157-11.113" stroke-width="1.2" stroke="#000" stroke-miterlimit="10" fill="none"/><path d="M87.95 234.102l-14.263 1.86" stroke-width="1.2" stroke="#f00" stroke-miterlimit="10" fill="none"/><path d="M73.688 235.96l-14.266 1.864" stroke-width="1.2" stroke="#000" stroke-miterlimit="10" fill="none"/><path d="M82.95 227.102h10v14h-10zm0 0" fill="#fff"/><use xlink:href="#a" x="82.949" y="238.24" fill="#f00"/><path d="M178.94 187.69l11.072 9.193" stroke-width="1.2" stroke="#f00" stroke-miterlimit="10" fill="none"/><path d="M190.012 196.883l11.066 9.19" stroke-width="1.2" stroke="#000" stroke-miterlimit="10" fill="none"/><path d="M173.94 180.69h10v14h-10zm0 0" fill="#fff"/><use xlink:href="#a" x="173.941" y="191.83" fill="#f00"/><path d="M232.914 167.734l-2.426 14.18" stroke-width="1.2" stroke="#f00" stroke-miterlimit="10" fill="none"/><path d="M230.488 181.914l-2.425 14.18" stroke-width="1.2" stroke="#000" stroke-miterlimit="10" fill="none"/><path d="M227.914 160.734h10v14h-10zm0 0" fill="#fff"/><use xlink:href="#a" x="227.914" y="171.873" fill="#f00"/><path d="M242.613 111.012l11.07 9.187" stroke-width="1.2" stroke="#f00" stroke-miterlimit="10" fill="none"/><path d="M253.684 120.2l11.066 9.19" stroke-width="1.2" stroke="#000" stroke-miterlimit="10" fill="none"/><path d="M237.613 104.012h10v14h-10zm0 0" fill="#fff"/><use xlink:href="#a" x="237.613" y="115.15" fill="#f00"/></g></svg>
